ligands/bidentate/8-hydroxyquinoline.svg

<svg height="256" viewBox="0 0 256 256" width="256" xmlns="http://www.w3.org/2000/svg"><path d="m0 0h256v256h-256z" fill="#fff"/><ellipse cx="163.8" cy="36.4" fill="#ff7f7f" fill-rule="evenodd" rx="19.4" ry="19.4" stroke="#ff7f7f"/><g fill="none" stroke="#000" stroke-width="2"><path d="m12.8 188.5 52.3 38.2"/><path d="m23.2 183.9 43.1 31.5"/><path d="m65.1 226.7 59.3-26.3"/><path d="m124.4 200.4 52.3 38.2"/><path d="m176.7 238.6 59.2-26.2"/><path d="m177.9 227.3 48.8-21.6"/><path d="m235.9 212.4 6.9-64.4"/><path d="m242.8 148-45.3-38.3"/><path d="m232.4 152.1-41.2-34.8"/><path d="m169.9 108.1-38.7 27.9"/><path d="m131.2 136-52.3-38.1"/><path d="m78.9 97.9-59.2 26.2"/><path d="m77.7 109.2-48.8 21.6"/><path d="m78.9 97.9 13.1-40"/><path d="m19.7 124.1-6.9 64.4"/><path d="m131.2 136-6.8 64.4"/><path d="m120.8 140.7-5.6 53"/><path d="m112.8 36.3 37.2.1"/><path d="m179.2 84.2-8.4-26.2"/><path d="m15.4 190.4-2.6-1.9.3-3.2" stroke-miterlimit="10"/><path d="m62.5 224.8 2.6 1.9 3-1.3" stroke-miterlimit="10"/><path d="m174.1 236.7 2.6 1.9 3-1.3" stroke-miterlimit="10"/><path d="m233 213.7 2.9-1.3.4-3.3" stroke-miterlimit="10"/><path d="m242.5 151.2.3-3.2-2.3-2" stroke-miterlimit="10"/><path d="m22.6 122.8-2.9 1.3-.4 3.2" stroke-miterlimit="10"/></g><text font-family="sans-serif" font-size="38" x="172" y="117.5">N</text><text font-family="sans-serif" font-size="38" x="87.4" y="55.7">O</text><text x="152.1" y="55.9"/></svg>

<?xml version='1.0' encoding='iso-8859-1'?>
<svg version='1.1' baseProfile='full'
              xmlns='http://www.w3.org/2000/svg'
                      xmlns:rdkit='http://www.rdkit.org/xml'
                      xmlns:xlink='http://www.w3.org/1999/xlink'
                  xml:space='preserve'
width='256px' height='256px' viewBox='0 0 256 256'>
<!-- END OF HEADER -->
<rect style='opacity:1.0;fill:#FFFFFF;stroke:none' width='256.0' height='256.0' x='0.0' y='0.0'> </rect>
<ellipse cx='163.8' cy='36.4' rx='19.4' ry='19.4' class='atom-11'  style='fill:#FF7F7F;fill-rule:evenodd;stroke:#FF7F7F;stroke-width:1.0px;stroke-linecap:butt;stroke-linejoin:miter;stroke-opacity:1' />
<path class='bond-0 atom-0 atom-1' d='M 12.8,188.5 L 65.1,226.7' style='fill:none;fill-rule:evenodd;stroke:#000000;stroke-width:2.0px;stroke-linecap:butt;stroke-linejoin:miter;stroke-opacity:1' />
<path class='bond-0 atom-0 atom-1' d='M 23.2,183.9 L 66.3,215.4' style='fill:none;fill-rule:evenodd;stroke:#000000;stroke-width:2.0px;stroke-linecap:butt;stroke-linejoin:miter;stroke-opacity:1' />
<path class='bond-1 atom-1 atom-2' d='M 65.1,226.7 L 124.4,200.4' style='fill:none;fill-rule:evenodd;stroke:#000000;stroke-width:2.0px;stroke-linecap:butt;stroke-linejoin:miter;stroke-opacity:1' />
<path class='bond-2 atom-2 atom-3' d='M 124.4,200.4 L 176.7,238.6' style='fill:none;fill-rule:evenodd;stroke:#000000;stroke-width:2.0px;stroke-linecap:butt;stroke-linejoin:miter;stroke-opacity:1' />
<path class='bond-3 atom-3 atom-4' d='M 176.7,238.6 L 235.9,212.4' style='fill:none;fill-rule:evenodd;stroke:#000000;stroke-width:2.0px;stroke-linecap:butt;stroke-linejoin:miter;stroke-opacity:1' />
<path class='bond-3 atom-3 atom-4' d='M 177.9,227.3 L 226.7,205.7' style='fill:none;fill-rule:evenodd;stroke:#000000;stroke-width:2.0px;stroke-linecap:butt;stroke-linejoin:miter;stroke-opacity:1' />
<path class='bond-4 atom-4 atom-5' d='M 235.9,212.4 L 242.8,148.0' style='fill:none;fill-rule:evenodd;stroke:#000000;stroke-width:2.0px;stroke-linecap:butt;stroke-linejoin:miter;stroke-opacity:1' />
<path class='bond-5 atom-5 atom-6' d='M 242.8,148.0 L 197.5,109.7' style='fill:none;fill-rule:evenodd;stroke:#000000;stroke-width:2.0px;stroke-linecap:butt;stroke-linejoin:miter;stroke-opacity:1' />
<path class='bond-5 atom-5 atom-6' d='M 232.4,152.1 L 191.2,117.3' style='fill:none;fill-rule:evenodd;stroke:#000000;stroke-width:2.0px;stroke-linecap:butt;stroke-linejoin:miter;stroke-opacity:1' />
<path class='bond-6 atom-6 atom-7' d='M 169.9,108.1 L 131.2,136.0' style='fill:none;fill-rule:evenodd;stroke:#000000;stroke-width:2.0px;stroke-linecap:butt;stroke-linejoin:miter;stroke-opacity:1' />
<path class='bond-7 atom-7 atom-8' d='M 131.2,136.0 L 78.9,97.9' style='fill:none;fill-rule:evenodd;stroke:#000000;stroke-width:2.0px;stroke-linecap:butt;stroke-linejoin:miter;stroke-opacity:1' />
<path class='bond-8 atom-8 atom-9' d='M 78.9,97.9 L 19.7,124.1' style='fill:none;fill-rule:evenodd;stroke:#000000;stroke-width:2.0px;stroke-linecap:butt;stroke-linejoin:miter;stroke-opacity:1' />
<path class='bond-8 atom-8 atom-9' d='M 77.7,109.2 L 28.9,130.8' style='fill:none;fill-rule:evenodd;stroke:#000000;stroke-width:2.0px;stroke-linecap:butt;stroke-linejoin:miter;stroke-opacity:1' />
<path class='bond-9 atom-8 atom-10' d='M 78.9,97.9 L 92.0,57.9' style='fill:none;fill-rule:evenodd;stroke:#000000;stroke-width:2.0px;stroke-linecap:butt;stroke-linejoin:miter;stroke-opacity:1' />
<path class='bond-10 atom-9 atom-0' d='M 19.7,124.1 L 12.8,188.5' style='fill:none;fill-rule:evenodd;stroke:#000000;stroke-width:2.0px;stroke-linecap:butt;stroke-linejoin:miter;stroke-opacity:1' />
<path class='bond-11 atom-7 atom-2' d='M 131.2,136.0 L 124.4,200.4' style='fill:none;fill-rule:evenodd;stroke:#000000;stroke-width:2.0px;stroke-linecap:butt;stroke-linejoin:miter;stroke-opacity:1' />
<path class='bond-11 atom-7 atom-2' d='M 120.8,140.7 L 115.2,193.7' style='fill:none;fill-rule:evenodd;stroke:#000000;stroke-width:2.0px;stroke-linecap:butt;stroke-linejoin:miter;stroke-opacity:1' />
<path class='bond-12 atom-10 atom-11' d='M 112.8,36.3 L 150.0,36.4' style='fill:none;fill-rule:evenodd;stroke:#000000;stroke-width:2.0px;stroke-linecap:butt;stroke-linejoin:miter;stroke-opacity:1' />
<path class='bond-13 atom-6 atom-11' d='M 179.2,84.2 L 170.8,58.0' style='fill:none;fill-rule:evenodd;stroke:#000000;stroke-width:2.0px;stroke-linecap:butt;stroke-linejoin:miter;stroke-opacity:1' />
<path d='M 15.4,190.4 L 12.8,188.5 L 13.1,185.3' style='fill:none;stroke:#000000;stroke-width:2.0px;stroke-linecap:butt;stroke-linejoin:miter;stroke-miterlimit:10;stroke-opacity:1;' />
<path d='M 62.5,224.8 L 65.1,226.7 L 68.1,225.4' style='fill:none;stroke:#000000;stroke-width:2.0px;stroke-linecap:butt;stroke-linejoin:miter;stroke-miterlimit:10;stroke-opacity:1;' />
<path d='M 174.1,236.7 L 176.7,238.6 L 179.7,237.3' style='fill:none;stroke:#000000;stroke-width:2.0px;stroke-linecap:butt;stroke-linejoin:miter;stroke-miterlimit:10;stroke-opacity:1;' />
<path d='M 233.0,213.7 L 235.9,212.4 L 236.3,209.1' style='fill:none;stroke:#000000;stroke-width:2.0px;stroke-linecap:butt;stroke-linejoin:miter;stroke-miterlimit:10;stroke-opacity:1;' />
<path d='M 242.5,151.2 L 242.8,148.0 L 240.5,146.0' style='fill:none;stroke:#000000;stroke-width:2.0px;stroke-linecap:butt;stroke-linejoin:miter;stroke-miterlimit:10;stroke-opacity:1;' />
<path d='M 22.6,122.8 L 19.7,124.1 L 19.3,127.3' style='fill:none;stroke:#000000;stroke-width:2.0px;stroke-linecap:butt;stroke-linejoin:miter;stroke-miterlimit:10;stroke-opacity:1;' />
<text x='172.0' y='117.5' class='atom-6' style='font-size:38px;font-style:normal;font-weight:normal;fill-opacity:1;stroke:none;font-family:sans-serif;text-anchor:start;fill:#000000' >N</text>
<text x='87.4' y='55.7' class='atom-10' style='font-size:38px;font-style:normal;font-weight:normal;fill-opacity:1;stroke:none;font-family:sans-serif;text-anchor:start;fill:#000000' >O</text>
<text x='152.1' y='55.9' class='atom-11' style='font-size:38px;font-style:normal;font-weight:normal;fill-opacity:1;stroke:none;font-family:sans-serif;text-anchor:start;fill:#000000' ></text>
</svg>
